X:1
T:E Major Oliver Holden, 1800
T:John Milton, "Altered by the Rev. Mr. Gardner" 66. 10. 66. 10.
T:Auspicious Morn No copyright. Transcribed from Plain Psalmody, 1800.
%%score [ 1 2 3 ]
L:1/8
M:2/4
K:E
V:1 treble nm="Treble" snm="Tr."
V:2 treble-8 nm="Tenor" snm="T."
V:3 bass nm="Bass" snm="B."
V:1
 G2 | B3 e | B2 A2 | G2 z c | BG Be | d2 c2 | d3 B | ee cc | d2 f2 | e2 d2 | c4 |: z4 | z4 | z4 | %14
w: ||||||||||||||
 z4 | z4 | z2 z e | c3 e | BG E2 | c2 B2 | A2 G2 | (G2 F2) | z2 Bc/d/ | eB cA | BG Be | %25
w: ||His|reign of|peace * up-|on the|world be-|gan, *||||
 e/d/c/e/ BA | G2 F2 | E4 |] %28
w: |||
V:2
 B2 | G3 B | e2 d2 | e2 z e | e2 G2 | B2 ^A2 | B3 G | BB ec | B2 d2 | c2 ^B2 | c4 |: BG Be | %12
w: 1.~No|war or|bat- tle|sound Was|heard the|world a-|round; No|hos- tile chiefs to|fur- ious|com- bat|ran;|But * peace- ful|
 B2 A2 | G3 B | AG AB | cB cd | e3 z | z4 | z4 | z4 | z4 | z4 | z2 e2 | g2 f2 | e2 e2 | B2 e2 | %26
w: was the|night in|which * the *|prince * of *|light||||||His|reign of|peace up-|on the|
 [Be]2 [Ad]2 | [Ge]4 |] %28
w: earth be-|gan.|
V:3
 E,2 | E,3 E, | E,2 B,,2 | E,2 z E, | E,2 E,2 | F,2 F,2 | B,,3 E, | G,G, A,A, | B,2 ^B,2 | C2 G,2 | %10
 C,4 |: G,E, G,A, | G,2 F,2 | E,2 z E, | E,2 E,2 | E,2 E,2 | E,3 G, | A,3 E, | E,2 E,2 | A,2 G,2 | %20
 F,2 E,2 | B,,4 | z2 E,2 | E,2 F,2 | G,2 E,2 | G,2 A,2 | B,2 B,,2 | E,4 |] %28

